src/assets/icons/logoIcon.svg

<svg width="22" height="22" viewBox="0 0 29 29" fill="none" xmlns="http://www.w3.org/2000/svg">
<g id="logoIcon">
<g id="globeIcon" filter="url(#filter0_i_1141_1207)">
<path id="Vector 16" d="M28.4384 14.5946C28.4384 5.11588 20.1445 1.00012 14.7192 1.00012C9.1068 1.00012 1 5.2406 1 14.5946C1 23.9486 8.85736 28.5009 14.9063 28.5009C19.022 28.5009 28.4384 25.1719 28.4384 14.5946Z" stroke="white" stroke-width="0.3"/>
<path id="Vector 17" d="M7.98435 2.80859C6.11355 3.99343 12.037 5.24063 14.7192 5.24063C18.8973 5.24063 22.7013 3.93107 21.4541 2.80859" stroke="white" stroke-width="0.3"/>
<path id="Vector 18" d="M21.3917 26.6924C23.2625 25.5075 18.0178 24.198 14.7192 24.198C10.5411 24.198 6.67478 25.5075 7.98434 26.63" stroke="white" stroke-width="0.3"/>
<path id="Ellipse 1" d="M26.5423 8.10914C26.5423 8.49685 26.2615 8.90057 25.6683 9.29499C25.0809 9.68562 24.2209 10.0432 23.1448 10.3459C20.9947 10.9506 18.0158 11.3266 14.7192 11.3266C11.4226 11.3266 8.44363 10.9506 6.29352 10.3459C5.21743 10.0432 4.35748 9.68562 3.77003 9.29499C3.17686 8.90057 2.89606 8.49685 2.89606 8.10914C2.89606 7.72143 3.17686 7.31771 3.77003 6.92329C4.35748 6.53266 5.21743 6.17505 6.29352 5.8724C8.44363 5.26768 11.4226 4.8917 14.7192 4.8917C18.0158 4.8917 20.9947 5.26768 23.1448 5.8724C24.2209 6.17505 25.0809 6.53266 25.6683 6.92329C26.2615 7.31771 26.5423 7.72143 26.5423 8.10914Z" stroke="white" stroke-width="0.3"/>
<path id="Ellipse 3" d="M26.5423 21.4542C26.5423 21.8419 26.2615 22.2457 25.6683 22.6401C25.0809 23.0307 24.2209 23.3883 23.1448 23.691C20.9947 24.2957 18.0158 24.6717 14.7192 24.6717C11.4226 24.6717 8.44363 24.2957 6.29352 23.691C5.21743 23.3883 4.35748 23.0307 3.77003 22.6401C3.17686 22.2457 2.89606 21.8419 2.89606 21.4542C2.89606 21.0665 3.17686 20.6628 3.77003 20.2684C4.35748 19.8778 5.21743 19.5201 6.29352 19.2175C8.44363 18.6128 11.4226 18.2368 14.7192 18.2368C18.0158 18.2368 20.9947 18.6128 23.1448 19.2175C24.2209 19.5201 25.0809 19.8778 25.6683 20.2684C26.2615 20.6628 26.5423 21.0665 26.5423 21.4542Z" stroke="white" stroke-width="0.3"/>
<path id="Ellipse 2" d="M28.2884 14.7193C28.2884 15.1761 27.9586 15.6454 27.2771 16.0995C26.6013 16.5497 25.6135 16.9611 24.3795 17.3089C21.9134 18.0039 18.4979 18.4357 14.7192 18.4357C10.9405 18.4357 7.52501 18.0039 5.05895 17.3089C3.82488 16.9611 2.8371 16.5497 2.1613 16.0995C1.47984 15.6454 1.15 15.1761 1.15 14.7193C1.15 14.2626 1.47984 13.7933 2.1613 13.3392C2.8371 12.8889 3.82488 12.4776 5.05895 12.1298C7.52501 11.4348 10.9405 11.003 14.7192 11.003C18.4979 11.003 21.9134 11.4348 24.3795 12.1298C25.6135 12.4776 26.6013 12.8889 27.2771 13.3392C27.9586 13.7933 28.2884 14.2626 28.2884 14.7193Z" stroke="white" stroke-width="0.3"/>
<path id="Vector 19" d="M14.7192 1.00011C14.2827 0.937748 12.7736 27.3909 14.7192 28.4385" stroke="white" stroke-width="0.3"/>
<path id="Vector 20" d="M14.9686 1.00012C16.1535 1.93552 15.7793 23.1379 14.6568 28.5009" stroke="white" stroke-width="0.3"/>
<path id="Vector 21" d="M15.9664 1.0625C9.91748 1.0625 2.30955 20.6435 10.8529 27.8773" stroke="white" stroke-width="0.3"/>
<path id="Vector 22" d="M11.9754 1.31189C6.6124 4.67933 7.79724 23.325 15.0934 28.5009" stroke="white" stroke-width="0.3"/>
<path id="Vector 23" d="M16.0911 1.0625C7.42307 1.93554 -2.36745 12.6615 4.80395 24.2604" stroke="white" stroke-width="0.3"/>
<path id="Vector 24" d="M17.1513 28.2514C9.04446 28.5008 3.61914 23.4497 2.18486 20.394" stroke="white" stroke-width="0.3"/>
<path id="Vector 25" d="M16.7771 1.18713C11.6636 1.18713 6.98654 3.36973 6.30058 3.99333C1.06234 9.60573 1.62358 24.7592 15.8417 28.4385" stroke="white" stroke-width="0.3"/>
<path id="Vector 26" d="M12.3495 1.2496C19.3962 -0.558833 24.5097 23.2003 17.3383 28.1891" stroke="white" stroke-width="0.3"/>
<path id="Vector 27" d="M17.7748 1.37427C24.6344 3.24507 23.7614 23.7615 14.0956 28.5009" stroke="white" stroke-width="0.3"/>
<path id="Vector 28" d="M10.9776 1.5613C22.5142 -1.24491 36.4828 21.7036 14.0956 28.5008" stroke="white" stroke-width="0.3"/>
<path id="Vector 29" d="M22.14 26.2559C28.189 21.08 27.6901 8.02498 24.8215 5.48998C20.8214 1.955 17.8372 1.49894 12.599 1.18713" stroke="white" stroke-width="0.3"/>
<path id="Ellipse 4" d="M18.9597 27.7526C19.1467 27.7526 16.6534 28.5009 14.7815 28.5009C13.1602 28.5009 10.7905 27.8773 10.9152 27.8773C11.1023 27.8773 13.0355 28.002 14.7815 27.9397C16.7147 27.9397 18.7726 27.7526 18.9597 27.7526Z" fill="white"/>
<path id="Ellipse 5" d="M18.3361 1.499C18.6479 1.62372 16.7167 1.499 14.7192 1.499C12.7217 1.499 10.9776 1.62372 11.227 1.499C11.4141 1.40546 12.9108 1.00012 14.7192 1.00012C16.1535 1.00012 17.8951 1.32262 18.3361 1.499Z" fill="white"/>
</g>
<g id="Vector 1" filter="url(#filter1_d_1141_1207)">
<path d="M15.2599 25.8544L7 4H10.9579L15.432 15.8737L18.3574 8.12997H22.4874L15.2599 25.8544Z" fill="white"/>
<path d="M15.2599 25.8544L7 4H10.9579L15.432 15.8737L18.3574 8.12997H22.4874L15.2599 25.8544Z" stroke="white"/>
</g>
</g>
<defs>
<filter id="filter0_i_1141_1207" x="0.850006" y="0.849976" width="27.7384" height="31.8009" filterUnits="userSpaceOnUse" color-interpolation-filters="sRGB">
<feFlood flood-opacity="0" result="BackgroundImageFix"/>
<feBlend mode="normal" in="SourceGraphic" in2="BackgroundImageFix" result="shape"/>
<feColorMatrix in="SourceAlpha" type="matrix" values="0 0 0 0 0 0 0 0 0 0 0 0 0 0 0 0 0 0 127 0" result="hardAlpha"/>
<feOffset dy="4"/>
<feGaussianBlur stdDeviation="2"/>
<feComposite in2="hardAlpha" operator="arithmetic" k2="-1" k3="1"/>
<feColorMatrix type="matrix" values="0 0 0 0 0 0 0 0 0 0 0 0 0 0 0 0 0 0 0.08 0"/>
<feBlend mode="normal" in2="shape" result="effect1_innerShadow_1141_1207"/>
</filter>
<filter id="filter1_d_1141_1207" x="2.2765" y="3.5" width="24.9547" height="31.7219" filterUnits="userSpaceOnUse" color-interpolation-filters="sRGB">
<feFlood flood-opacity="0" result="BackgroundImageFix"/>
<feColorMatrix in="SourceAlpha" type="matrix" values="0 0 0 0 0 0 0 0 0 0 0 0 0 0 0 0 0 0 127 0" result="hardAlpha"/>
<feOffset dy="4"/>
<feGaussianBlur stdDeviation="2"/>
<feComposite in2="hardAlpha" operator="out"/>
<feColorMatrix type="matrix" values="0 0 0 0 0 0 0 0 0 0 0 0 0 0 0 0 0 0 0.25 0"/>
<feBlend mode="normal" in2="BackgroundImageFix" result="effect1_dropShadow_1141_1207"/>
<feBlend mode="normal" in="SourceGraphic" in2="effect1_dropShadow_1141_1207" result="shape"/>
</filter>
</defs>
</svg>

<svg xmlns="http://www.w3.org/2000/svg" width="22" height="22" fill="none" viewBox="0 0 29 29"><g filter="url(#a)"><path stroke="#fff" stroke-width=".3" d="M28.438 14.595C28.438 5.115 20.145 1 14.72 1 9.107 1 1 5.24 1 14.595 1 23.949 8.857 28.5 14.906 28.5c4.116 0 13.532-3.33 13.532-13.906Z"/><path stroke="#fff" stroke-width=".3" d="M7.984 2.809C6.114 3.993 12.037 5.24 14.72 5.24c4.178 0 7.982-1.31 6.735-2.432M21.392 26.692c1.87-1.184-3.374-2.494-6.673-2.494-4.178 0-8.044 1.31-6.735 2.432"/><path stroke="#fff" stroke-width=".3" d="M26.542 8.11c0 .387-.28.79-.874 1.185-.587.39-1.447.748-2.523 1.05-2.15.606-5.13.982-8.426.982s-6.275-.376-8.425-.981c-1.077-.303-1.937-.66-2.524-1.051-.593-.394-.874-.798-.874-1.186s.28-.791.874-1.186c.587-.39 1.447-.748 2.524-1.05 2.15-.605 5.129-.981 8.425-.981s6.276.376 8.426.98c1.076.303 1.936.66 2.523 1.051.594.395.874.798.874 1.186ZM26.542 21.454c0 .388-.28.792-.874 1.186-.587.39-1.447.748-2.523 1.051-2.15.605-5.13.98-8.426.98s-6.275-.375-8.425-.98c-1.077-.303-1.937-.66-2.524-1.05-.593-.395-.874-.8-.874-1.187s.28-.791.874-1.186c.587-.39 1.447-.748 2.524-1.05 2.15-.605 5.129-.981 8.425-.981s6.276.376 8.426.98c1.076.303 1.936.66 2.523 1.051.594.395.874.799.874 1.186Z"/><path stroke="#fff" stroke-width=".3" d="M28.288 14.72c0 .456-.33.925-1.01 1.38-.677.45-1.665.861-2.898 1.209-2.467.695-5.882 1.127-9.66 1.127-3.78 0-7.195-.432-9.661-1.127-1.234-.348-2.222-.76-2.898-1.21-.681-.454-1.011-.923-1.011-1.38s.33-.926 1.011-1.38c.676-.45 1.664-.861 2.898-1.21 2.466-.694 5.882-1.126 9.66-1.126s7.194.432 9.66 1.127c1.234.348 2.222.759 2.898 1.21.682.453 1.011.923 1.011 1.38Z"/><path stroke="#fff" stroke-width=".3" d="M14.72 1c-.437-.062-1.946 26.39 0 27.439"/><path stroke="#fff" stroke-width=".3" d="M14.969 1c1.185.936.81 22.138-.312 27.5"/><path stroke="#fff" stroke-width=".3" d="M15.966 1.063c-6.049 0-13.656 19.58-5.113 26.814"/><path stroke="#fff" stroke-width=".3" d="M11.975 1.312C6.612 4.679 7.797 23.325 15.093 28.5"/><path stroke="#fff" stroke-width=".3" d="M16.091 1.063C7.423 1.936-2.367 12.662 4.804 24.26"/><path stroke="#fff" stroke-width=".3" d="M17.151 28.251c-8.107.25-13.532-4.801-14.966-7.857"/><path stroke="#fff" stroke-width=".3" d="M16.777 1.187c-5.113 0-9.79 2.183-10.476 2.806C1.062 9.606 1.624 24.76 15.84 28.44"/><path stroke="#fff" stroke-width=".3" d="M12.35 1.25C19.396-.56 24.51 23.2 17.338 28.19"/><path stroke="#fff" stroke-width=".3" d="M17.775 1.374c6.86 1.871 5.986 22.388-3.68 27.127"/><path stroke="#fff" stroke-width=".3" d="M10.978 1.561c11.536-2.806 25.505 20.143 3.118 26.94"/><path stroke="#fff" stroke-width=".3" d="M22.14 26.256c6.049-5.176 5.55-18.231 2.682-20.766-4-3.535-6.985-3.991-12.223-4.303"/><path fill="#fff" d="M18.96 27.753c.187 0-2.307.748-4.179.748-1.62 0-3.99-.624-3.866-.624.187 0 2.12.125 3.867.063 1.933 0 3.99-.187 4.178-.187M18.336 1.499c.312.125-1.62 0-3.617 0s-3.741.125-3.492 0C11.414 1.405 12.911 1 14.719 1c1.435 0 3.176.323 3.617.499"/></g><g filter="url(#b)"><path fill="#fff" d="M15.26 25.854 7 4h3.958l4.474 11.874 2.925-7.744h4.13z"/><path stroke="#fff" d="M15.26 25.854 7 4h3.958l4.474 11.874 2.925-7.744h4.13z"/></g><defs><filter id="a" width="27.738" height="31.801" x=".85" y=".85" color-interpolation-filters="sRGB" filterUnits="userSpaceOnUse"><feFlood flood-opacity="0" result="BackgroundImageFix"/><feBlend in="SourceGraphic" in2="BackgroundImageFix" result="shape"/><feColorMatrix in="SourceAlpha" result="hardAlpha" values="0 0 0 0 0 0 0 0 0 0 0 0 0 0 0 0 0 0 127 0"/><feOffset dy="4"/><feGaussianBlur stdDeviation="2"/><feComposite in2="hardAlpha" k2="-1" k3="1" operator="arithmetic"/><feColorMatrix values="0 0 0 0 0 0 0 0 0 0 0 0 0 0 0 0 0 0 0.08 0"/><feBlend in2="shape" result="effect1_innerShadow_1141_1207"/></filter><filter id="b" width="24.955" height="31.722" x="2.276" y="3.5" color-interpolation-filters="sRGB" filterUnits="userSpaceOnUse"><feFlood flood-opacity="0" result="BackgroundImageFix"/><feColorMatrix in="SourceAlpha" result="hardAlpha" values="0 0 0 0 0 0 0 0 0 0 0 0 0 0 0 0 0 0 127 0"/><feOffset dy="4"/><feGaussianBlur stdDeviation="2"/><feComposite in2="hardAlpha" operator="out"/><feColorMatrix values="0 0 0 0 0 0 0 0 0 0 0 0 0 0 0 0 0 0 0.25 0"/><feBlend in2="BackgroundImageFix" result="effect1_dropShadow_1141_1207"/><feBlend in="SourceGraphic" in2="effect1_dropShadow_1141_1207" result="shape"/></filter></defs></svg>
